!!!COM: Corelli, Arcangelo
!!!OTL: Sonate a tre [in Bb]
!!!XEN: Trio Sonata Opus 1, No. 5
!!!OPS: Opus 1
!!!ONM: No. 5
!!!OMV: Movement 2.
!!!YEC: Copyright 1994, Center for Computer Assisted Research in the Humanities
!!!YEM: Rights to all derivative electronic formats reserved.
!!!YEM: Refer to licensing agreement for further details.
!! For the following instrumentation: Violino I & II, Violone/Archlute,
!!    and Organo.
!! Allegro.
**kern	**kern	**kern	**kern
*ICklav	*ICstr	*ICstr	*ICstr
*Iorgan	*Icello	*Ivioln	*Ivioln
*	*Iarchl	*	*
!Organo	!Violone	!Violin 2	!Violin 1
!	! or	!	!
!	!Archlute	!	!
*>[A,A]	*>[A,A]	*>[A,A]	*>[A,A]
*>A	*>A	*>A	*>A
*clefF4	*clefF4	*clefG2	*clefG2
*k[b-]	*k[b-]	*k[b-]	*k[b-]
*B-:	*B-:	*B-:	*B-:
*M4/4	*M4/4	*M4/4	*M4/4
*MM66	*MM66	*MM66	*MM66
=1-	=1-	=1-	=1-
4BB-/	4BB-/	1r	4.b-\
2B-\	2B-\	.	.
.	.	.	8dd\
.	.	.	8gg\L
.	.	.	8ee-\
4A\	4A\	.	8cc\
.	.	.	8ff\J
=2	=2	=2	=2
4.B-\	4.B-\	1r	8dd\L
.	.	.	8b-\J
.	.	.	[4gg\
8G\	8G\	.	.
4.A\	4.A\	.	8gg\L]
.	.	.	8cc\J
.	.	.	[4ff\
8F\	8F\	.	.
=3	=3	=3	=3
4.G\	4.G\	1r	8ff\L]
.	.	.	8b-\J
.	.	.	[4ee-\
8E-\	8E-\	.	.
4F\	4F\	.	8ee-\L]
.	.	.	8dd\J
4BB-/	4BB-/	.	8dd\L
.	.	.	16ee-\L
.	.	.	16dd\JJ
=4	=4	=4	=4
4E-\	4E-\	1r	2cc\
4F\	4F\	.	.
2BB-/	2BB-/	.	8b-\L
.	.	.	8bb-\
.	.	.	8aa\
.	.	.	8gg\J
=5	=5	=5	=5
4F\	4F\	4.f/	8aa\L
.	.	.	8cc\J
4D\	4D\	.	2ff\
.	.	8a/	.
4BB-/	4BB-/	8dd\L	.
.	.	8b-\	.
4C/	4C/	8g\	4ee\
.	.	8cc\J	.
=6	=6	=6	=6
4FF/	4FF/	8a/L	4.ff\
.	.	8f/J	.
4F\	4F\	[4dd\	.
.	.	.	8ff\
4G\	4G\	8dd\L]	4.ee-\
.	.	8g\J	.
4A\	4A\	[4cc\	.
.	.	.	(16ff\LL
.	.	.	16ee-\JJ)
=7	=7	=7	=7
4.B-\	4.B-\	8cc/L]	4.dd\
.	.	8f/J	.
.	.	[4b-\	.
8E-\	8E-\	.	(16ee-\LL
.	.	.	16dd\JJ)
4.F\	4.F\	8b-/L]	8cc\L
.	.	8a/J	8cc\J
.	.	8a/L	[4ff\
8BB-/	8BB-/	(16b-/L	.
.	.	16a/JJ)	.
=8	=8	=8	=8
2C/	2C/	2g/	4ff\]
.	.	.	4ee\
4FF/	4FF/	8f\L	8ff\L
.	.	8ff\	8dd\
4r	4r	8ee-\	8cc\
.	.	8dd\J	8b-\J
=9	=9	=9	=9
2r	2r	8ee-\L	8cc\L
.	.	8ee-\	8cc\
.	.	8dd\	8b-\
.	.	8cc\J	8a\J
4.BB-/	4.BB-/	8dd/L	4.b-\
.	.	8f/J	.
.	.	[4b-\	.
8D\	8D\	.	8ff\
=10	=10	=10	=10
8G\L	8G\L	4b-\]	4.ee-\
8E-\	8E-\	.	.
8C\	8C\	4a/	.
8F\J	8F\J	.	(16dd\LL
.	.	.	16cc\JJ)
8D/L	8D/L	4.b-\	8dd\L
8BB-/J	8BB-/J	.	8dd\
[4G\	[4G\	.	8ee-\
.	.	8bb-\	8dd\J
=11	=11	=11	=11
4G\]	8G\L]	4.aa\	8cc\L
.	8C\J	.	8a\
2F\	2F\	.	8dd\
.	.	(16bb-\LL	8cc\J
.	.	16aa\JJ)	.
.	.	4.gg\	8b-\L
.	.	.	8g\
4E\	4E\	.	8cc\
.	.	8gg\	8b-\J
=12	=12	=12	=12
4.F\	4.F\	8ff\L	4a/
.	.	8cc\J	.
.	.	[4ff\	4r
8D\	8D\	.	.
4E-\	4E-\	8ff\L]	4.gg\
.	.	8b-\J	.
8C\L	8C\L	[4ee-\	.
8c\J	8c\J	.	(16aa\LL
.	.	.	16gg\JJ)
=13	=13	=13	=13
8A\L	8A\L	8ee-\L]	4.ff\
8F\J	8F\J	8a\J	.
4B-\	4B-\	[4dd\	.
.	.	.	(16gg\LL
.	.	.	16ff\JJ)
4G\	4G\	8dd\L]	4.ee-\
.	.	8g\J	.
4A\	4A\	[4cc\	.
.	.	.	(16ff\LL
.	.	.	16ee-\JJ)
=14	=14	=14	=14
4.B-\	4.B-\	8cc/L]	4.dd\
.	.	8f/J	.
.	.	2b-\	.
8G\	8G\	.	(16ee-\LL
.	.	.	16dd\JJ)
8E-/L	8E-/L	.	16cc\LL
.	.	.	16ff\
8C/	8C/	.	16ee-\
.	.	.	16dd\JJ
8F/	8F/	4a/	8.cc\L
8FF/J	8FF/J	.	.
.	.	.	16cc\Jk
=15	=15	=15	=15
8BB-\L	8BB-\L	4.b-\	8b-/L
8B-\	8B-\	.	8f/J
8G\	8G\	.	4b-\
8B-\J	8B-\J	8dd\	.
4E-\	4E-\	8gg\L	2r
.	.	8ee-\	.
4F\	4F\	8cc\	.
.	.	8ff\J	.
=16	=16	=16	=16
4.B-\	4.B-\	8dd\L	8r
.	.	8b-\J	8bb-\L
.	.	[4gg\	8bb-\
8G\	8G\	.	8bb-\J
4.A\	4.A\	8gg\L]	4.aa\
.	.	8cc\J	.
.	.	[4ff\	.
8d\	8d\	.	(16bb-\LL
.	.	.	16aa\JJ)
=17	=17	=17	=17
8B-\L	8B-\L	4ff\]	2gg\
8G\	8G\	.	.
8c\	8c\	4ee\	.
8C\J	8C\J	.	.
4.F\	4.F\	8r	8ff\L
.	.	8ff\L	8a\J
.	.	8ff\	[4dd\
8F\	8F\	8ff\J	.
=18	=18	=18	=18
4G\	4G\	4.ee-\	8dd\L]
.	.	.	8g\J
4A\	4A\	.	[4cc\
.	.	(16ff\LL	.
.	.	16ee-\JJ)	.
4.B-\	4.B-\	4.dd\	8cc/L]
.	.	.	8f/J
.	.	.	[4b-\
8D\	8D\	8ff\	.
=19	=19	=19	=19
8G\L	8G\L	4.ee-\	4b-\]
8E-\	8E-\	.	.
8C\	8C\	.	4a/
8F\J	8F\J	(16dd\LL	.
.	.	16cc\JJ)	.
8D/L	8D/L	4.dd\	8b-\L
8BB-/J	8BB-/J	.	8ff\J
8r	8r	.	[4bb-\
8BB-/	8BB-/	8dd\	.
=20	=20	=20	=20
4.C/	4.C/	4.ee-\	8bb-\L]
.	.	.	(16aa\L
.	.	.	16gg\JJ)
.	.	.	[4aa\
(16D/LL	(16D/LL	(16ff\LL	.
16C/JJ)	16C/JJ)	16ee-\JJ)	.
4.BB-/	4.BB-/	4.dd\	8aa\L]
.	.	.	(16gg\L
.	.	.	16ff\JJ)
.	.	.	[4gg\
(16C/LL	(16C/LL	(16ee-\LL	.
16BB-/JJ)	16BB-/JJ)	16dd\JJ)	.
=21	=21	=21	=21
4.AA/	4.AA/	4.cc\	4gg\]
.	.	.	4ff#\
8AA/	8AA/	(16dd\LL	.
.	.	16cc\JJ)	.
8GG\L	8GG\L	8b-\L	8gg\L
8G\	8G\	8dd\J	8b-\
8G\	8G\	[4ee-\	8b-\
8G\J	8G\J	.	8b-\J
=22	=22	=22	=22
4.F\	4.F\	8ee-\L]	4.a/
.	.	(16dd\L	.
.	.	16cc\JJ)	.
.	.	[4dd\	.
(16G\LL	(16G\LL	.	(16b-/LL
16F\JJ)	16F\JJ)	.	16a/JJ)
4.E-\	4.E-\	8dd\L]	4.g/
.	.	(16cc\L	.
.	.	16b-\JJ)	.
.	.	8cc\L	.
8E-\	8E-\	8cc\J	(16a/LL
.	.	.	16g/JJ)
=23	=23	=23	=23
4D\	4D\	4dd\	8f#/L
.	.	.	8a/J
8r	8r	8r	2dd\
8BB-/	8BB-/	8d/	.
4.C/	4.C/	8e/L	.
.	.	8f#/	.
.	.	8g/	[4cc\
8C/	8C/	8a/J	.
=24	=24	=24	=24
4D\	4D\	8f#/L	4cc\]
.	.	8d/J	.
4E-\	4E-\	2g/	4b-\
4C/	4C/	.	2a/
4D\	4D\	4f#/	.
=25	=25	=25	=25
4.GG/	4.GG/	8g/L	8g\L
.	.	8b-/J	8gg\
.	.	[4ee-\	8gg\
8GG/	8GG/	.	8gg\J
4AA/	4AA/	8ee-\L]	4.ff\
.	.	8a\J	.
4BB/	4BB/	[4dd\	.
.	.	.	(16gg\LL
.	.	.	16ff\JJ)
=26	=26	=26	=26
4.C/	4.C/	8dd\L]	4.ee-\
.	.	8g\J	.
.	.	2cc\	.
8A-\	8A-\	.	(16ff\LL
.	.	.	16ee-\JJ)
4F\	4F\	.	2dd\
4G\	4G\	4b\	.
=27	=27	=27	=27
4C/	8C\L	4cc\	8ee-\L
.	8c\	.	8cc\
4c\	8c\	4r	8cc\
.	8c\J	.	8cc\J
4B-\	4.B-\	2r	4dd\
4G\	.	.	4een\
.	(16c\LL	.	.
.	16B-\JJ)	.	.
=28	=28	=28	=28
8A\L	4A\	8r	8ff/L
*clefG2	*	*	*
8f\	.	8ff\L	8f/
8f\	4r	8ff\	8f/
8f\J	.	8ff\J	8f/J
4g/	2r	4.ee-\	4g/
4a/	.	.	4a/
.	.	(16ff\LL	.
.	.	16ee-\JJ)	.
=29	=29	=29	=29
8b-/L	8r	8dd\L	8b-\L
*clefF4	*	*	*
8BB-/	8BB-/L	8b-\J	8bb-\
8BB-/	8BB-/	[4gg\	8bb-\
8BB-/J	8BB-/J	.	8bb-\J
4C/	4C/	8gg\L]	4.aa\
.	.	8cc\J	.
4D\	4D\	[4ff\	.
.	.	.	(16bb-\LL
.	.	.	16aa\JJ)
=30	=30	=30	=30
4E-\	4E-\	8ff\L]	4.gg\
.	.	8b-\J	.
8C\L	8C\L	4ee-\	.
8c\J	8c\J	.	(16aa\LL
.	.	.	16gg\JJ)
8A\L	8A\L	4r	8ff\L
8F\	8F\	.	8ff\J
8D\	8D\	8r	[4bb-\
8BB-\J	8BB-\J	8dd\	.
=31	=31	=31	=31
4E-\	4E-\	8gg\L	4bb-\]
.	.	8ee-\	.
4F\	4F\	8cc\	4aa\
.	.	8ff\J	.
8BB-\L	8r	8dd\L	8bb-\L
8B-\	8B-\L	8b-\J	8dd\
8B-\	8B-\	[4gg\	8dd\
8B-\J	8B-\J	.	8dd\J
=32	=32	=32	=32
4.A\	4.A\	8gg\L]	4cc\
.	.	8cc\J	.
.	.	2ff\	8r
8F\	8F\	.	8a/
4BB-/	4BB-/	.	8dd\L
.	.	.	8b-\
4C/	4C/	4ee\	8g\
.	.	.	8cc\J
=33	=33	=33	=33
8FF\L	8FF\L	8r	8a/L
8F\	8F\	8ff\L	8f/J
8F\	8F\	8ff\	[4dd\
8F\J	8F\J	8ff\J	.
4G\	4G\	4.ee-\	8dd\L]
.	.	.	8g\J
4A\	4A\	.	[4cc\
.	.	(16ff\LL	.
.	.	16ee-\JJ)	.
=34	=34	=34	=34
4.B-\	4.B-\	4.dd\	8cc/L]
.	.	.	8f/J
.	.	.	2b-\
8D\	8D\	8ff\	.
8G\L	8G\L	4.ee-\	.
8E-\	8E-\	.	.
8C\	8C\	.	4a/
8F\J	8F\J	(16ff\LL	.
.	.	16ee-\JJ)	.
=35	=35	=35	=35
8D/L	8D/L	8dd\L	8b-\L
8BB-/J	8BB-/J	8dd\J	8bb-\
8r	8r	[4gg\	8bb-\
8BB-/	8BB-/	.	8bb-\J
4C/	4C/	8gg\L]	4.aa\
.	.	8cc\J	.
4D\	4D\	[4ff\	.
.	.	.	(16bb-\LL
.	.	.	16aa\JJ)
=36	=36	=36	=36
4E-\	4E-\	8ff\L]	16gg\LL
.	.	.	16ff\
.	.	8b-\J	16gg\
.	.	.	16aa\JJ
8C\L	8C\L	[4ee-\	16gg\LL
.	.	.	16bb-\
8c\J	8c\J	.	16aa\
.	.	.	16gg\JJ
8A\L	8A\L	8ee-\L]	4.ff\
8F\J	8F\J	8a\J	.
4B-\	4B-\	[4dd\	.
.	.	.	(16gg\LL
.	.	.	16ff\JJ)
=37	=37	=37	=37
4G\	4G\	8dd\L]	16ee-\LL
.	.	.	16dd\
.	.	8g\J	16ee-\
.	.	.	16ff\JJ
4A\	4A\	[4cc\	16ee-\LL
.	.	.	16gg\
.	.	.	16ff\
.	.	.	16ee-\JJ
4.B-\	4.B-\	8cc/L]	4.dd\
.	.	8f/J	.
.	.	[4b-\	.
8D\	8D\	.	(16bb-\LL
.	.	.	16aa\JJ)
=38	=38	=38	=38
4E-\	4E-\	4b-\]	(16gg\LL
.	.	.	16ff\)
.	.	.	(16ee-\
.	.	.	16dd\JJ)
4F\	4F\	4a/	8.cc\L
.	.	.	16cc\Jk
4.BB-/	4.BB-/	8b-/L	4.b-\
.	.	8f/J	.
.	.	[4b-\	.
8D\	8D\	.	(16bb-\LL
.	.	.	16aa\JJ)
=39	=39	=39	=39
4E-\	4E-\	4b-\]	(16gg\LL
.	.	.	16ff\)
.	.	.	(16ee-\
.	.	.	16dd\JJ)
4F\	4F\	4a/	8.cc\L
.	.	.	16cc\Jk
2BB-/	2BB-/	2b-\	2b-\
==	==	==	==
*-	*-	*-	*-
!!!CDT: 1653/2/17/-1713/1/8
!!!OCY: Italia
!!!ODE: Queen Christina Alexandra of Sweden
!!!ODT: 1681//
!!!OPC: Roma; Rome
!!!AGN: trio sonata
!!!AST: baroque, chamber
!!!AMT: simple quadruple
!!!YOR1: J. Joachim & F. Chrysander (eds.) Les Oeuvre de Arcangelo Corelli
!!!YOR2: London: Augener & Co. 1871
!!!YOY: 1871
!!!AIN: archl cello organ violn
!!!EEV: 1.1
!!!RDT: 1993 August 20
!!!YER: 1994 December 14
!!!EMD: 1996 July 9
!!!YEN: United States of America
!!!EFL: 2/4
!!!ENC: Frances Bennion & Steven Rasmussen
!!!EED: W.B. Hewlett
!!!VTS: 1011540712
